!!!COM: Buxtehude, Dietrich
!!!CDT: ~1637///-1707/05/09/
!!!ODT: ~1694///
!!!OTL: Sonata in B-flat Major, Op. 1, No. 4
!!!OPS: Op. 1
!!!ONM: No. 4
!!!SCA: BuxWV 255
!!!OMD: 1. Vivace
!!!URL: http://www.lysator.liu.se/~tuben/scores
**kern	**kern	**kern
*staff3	*staff2	*staff1
*Icemba	*Iviola	*Ivioln
*clefF4	*clefC3	*clefG2
*k[b-e-]	*k[b-e-]	*k[b-e-]
*M2/2	*M2/2	*M2/2
*MM120	*MM120	*MM120
=1-	=1-	=1-
8BB-\L	1r	4r
8B-\J	.	.
4A\	.	8r
.	.	16ff\LL
.	.	16ff\JJ
4B-\	.	4ff\
4D\	.	4r
=2	=2	=2
4E-\	1r	2r
4G\	.	.
4F\	.	4r
4AA/	.	8r
.	.	16ff\LL
.	.	16ff\JJ
=3	=3	=3
4BB-/	1r	4ff\
4FF/	.	4r
4GG/	.	2r
4DD/	.	.
=4	=4	=4
4EE-/	1r	4r
4FF/	.	8r
.	.	8ff\
8BB-\L	.	8.dd\L
8B-\J	.	.
.	.	32cc\LL
.	.	32b-\JJJ
4A\	.	[4ff\
=5	=5	=5
4B-\	1r	8ff\L]
.	.	8ff\J
4D\	.	8.bb-\L
.	.	16aa-\Jk
4E-\	.	8gg\
.	.	4b-\
4G\	.	.
.	.	8ee-\
=6	=6	=6
4F\	1r	(16ee-\LK
.	.	8.dd\J)
4AA/	.	(16ff\LK
.	.	8.cc\J)
4BB-/	.	(16dd\LK
.	.	8.cc\J)
4FF/	.	(16dd\LK
.	.	8.a\J)
=7	=7	=7
4GG/	1r	(16b-/LK
.	.	8.a/J)
4DD/	.	(16b-/LK
.	.	8.f/J)
4EE-/	.	8g\L
.	.	8gg\
4FF/	.	8cc\
.	.	8ff\J
=8	=8	=8
8BB-\L	1r	8.dd\L
8B-\J	.	.
.	.	32cc\LL
.	.	32b-\JJJ
4A\	.	4ff\
4B-\	.	8r
.	.	16ff\LL
.	.	16ff\JJ
4D\	.	4ff\
=9	=9	=9
4E-\	1r	8r
.	.	8gg\L
4G\	.	8.bb-\
.	.	16aa\Jk
4F\	.	8aa\L
.	.	8cc\J
4AA/	.	(16cc\LL
.	.	16dd\J
.	.	8ee-\J)
=10	=10	=10
4BB-/	1r	8r
.	.	16dd\LL
.	.	16dd\JJ
4FF/	.	4dd\
4GG/	.	8r
.	.	8dd\
4DD/	.	(16dd\LL
.	.	16ee-\J
.	.	[8ff\J)
=11	=11	=11
4EE-/	1r	8ff\L]
.	.	16ee-\L
.	.	16dd\JJ
4FF/	.	8cc\L
.	.	8ff\J
8BB-\L	.	8.dd\L
8B-\J	.	.
.	.	32cc\LL
.	.	32b-\JJJ
4A\	.	4ff\
=12	=12	=12
4B-\	1r	8r
.	.	8ff\
4D\	.	4bb-\
4E-\	.	8r
.	.	8gg\
4G\	.	8.dd\L
.	.	16een\Jk
=13	=13	=13
4F\	1r	8ff\L
.	.	8aa\J
4AA/	.	4cc\
4BB-/	.	8r
.	.	16dd\LL
.	.	16dd\JJ
4FF/	.	4dd\
=14	=14	=14
4GG/	1r	8r
.	.	16dd\LL
.	.	16dd\JJ
4DD/	.	4.dd\
4EE-/	.	.
.	.	16cc\LL
.	.	16b-\JJ
4FF/	.	8.b-/L
.	.	16a/Jk
=15	=15	=15
8BB-\L	1r	16dd\LL
.	.	16ee-\
8B-\J	.	16ff\
.	.	16gg\JJ
4A\	.	16cc\LL
.	.	16dd\
.	.	16ee-\
.	.	16ff\JJ
4B-\	.	16b-\LL
.	.	16cc\
.	.	16dd\
.	.	16ee-\JJ
4D\	.	16ff\LL
.	.	16gg\
.	.	16aa-\
.	.	16bb-\JJ
=16	=16	=16
4E-\	1r	16gg\LL
.	.	16aa\
.	.	16bb-\
.	.	16ccc\JJ
4G\	.	16bb-\LL
.	.	16aa\
.	.	16bb-\
.	.	16ccc\JJ
4F\	.	16a\LL
.	.	16b-\
.	.	16cc\
.	.	16dd\JJ
4AA/	.	16cc\LL
.	.	16dd\
.	.	16ee-\
.	.	16ff\JJ
=17	=17	=17
4BB-/	1r	16dd\LL
.	.	16ee-\
.	.	16ff\
.	.	16gg\JJ
4FF/	.	16a\LL
.	.	16b-\
.	.	16cc\
.	.	16dd\JJ
4GG/	.	16b-\LL
.	.	16cc\
.	.	16dd\
.	.	16ee-\JJ
4DD/	.	16f/LL
.	.	16g/
.	.	16a-/
.	.	16b-/JJ
=18	=18	=18
4EE-/	2r	16g/LL
.	.	16a/
.	.	16b-/
.	.	16cc/JJ
4FF/	.	16c/LL
.	.	16d/
.	.	16e-/
.	.	16f/JJ
8BB-\L	4r	16d/LL
.	.	16f/
8B-\J	.	16B-/
.	.	16dd/JJ
4A\	8r	16cc\LL
.	.	16f\
.	16f\LL	16cc\
.	16f\JJ	16ff\JJ
=19	=19	=19
4B-\	4f\	16dd\LL
.	.	16b-\
.	.	16dd\
.	.	16ff\JJ
4D\	4r	16f\LL
.	.	16b-\
.	.	16ff\
.	.	16bb-\JJ
4E-\	2r	16gg\LL
.	.	16g\
.	.	16b-\
.	.	16ee-\JJ
4G\	.	16dd\LL
.	.	16b-\
.	.	16dd\
.	.	16bb-\JJ
=20	=20	=20
4F\	4r	16aa\LL
.	.	16a\
.	.	16cc\
.	.	16ff\JJ
4AA/	8r	16ff\LL
.	.	16cc\
.	16f\LL	16dd\
.	16f\JJ	16ee-\JJ
4BB-/	4f\	16dd\LL
.	.	16f\
.	.	16b-\
.	.	16dd\JJ
4FF/	4r	16dd\LL
.	.	16a\
.	.	16b-\
.	.	16cc\JJ
=21	=21	=21
4GG/	2r	32b-\LLL
.	.	32f\
.	.	32g\
.	.	32a\
.	.	32b-\
.	.	32cc\
.	.	32dd\
.	.	32ee-\JJJ
4DD/	.	16ff\LL
.	.	16bb-\
.	.	16aa-\
.	.	16bb-\JJ
4EE-/	4r	16gg\LL
.	.	16cc\
.	.	16dd\
.	.	16ee-\JJ
4FF/	8r	8.cc\L
.	8f\	.
.	.	16b-\Jk
=22	=22	=22
8BB-\L	8.d\L	4b-\
8B-\J	.	.
.	32c\LL	.
.	32B-\JJJ	.
4A\	4.f\	4r
4B-\	.	2r
.	8f\L	.
4D\	8.b-\	.
.	16a-\Jk	.
=23	=23	=23
4E-\	8g\	1r
.	4B-/	.
4G\	.	.
.	8e-\	.
4F\	(16e-\LK	.
.	8.d\J)	.
4AA/	(16f\LK	.
.	8.c\J)	.
=24	=24	=24
4BB-/	(16d\LK	1r
.	8.c\J)	.
4FF/	(16d/LK	.
.	8.A/J)	.
4GG/	16B-/LK	.
.	8.A/J	.
4DD/	(16B-/LK	.
.	8.F/J)	.
=25	=25	=25
4EE-/	8G\L	1r
.	8g\	.
4FF/	8c\	.
.	8f\J	.
8BB-\L	8.d\L	.
8B-\J	.	.
.	32c\LL	.
.	32B-\JJJ	.
4A\	16f\LL	.
.	16c\	.
.	16d\	.
.	16e-\JJ	.
=26	=26	=26
4B-\	16d\LL	1r
.	16B-\	.
.	16c\	.
.	16d\JJ	.
4D\	16B-/LL	.
.	16c/	.
.	16A-/	.
.	16B-/JJ	.
4E-\	16G\LL	.
.	16e-\	.
.	16d\	.
.	16c\JJ	.
4G\	16B-\LL	.
.	16c\	.
.	16d\	.
.	16en\JJ	.
=27	=27	=27
4F\	16f\LL	1r
.	16c\	.
.	16A\	.
.	16B-\JJ	.
4AA/	16c\LL	.
.	16d\	.
.	16e-\	.
.	16f\JJ	.
4BB-/	16d\LL	.
.	16e-\	.
.	16f\	.
.	16g\JJ	.
4FF/	16A/LL	.
.	16B-/	.
.	16c/	.
.	16d/JJ	.
=28	=28	=28
4GG/	16B-\LL	2r
.	16c\	.
.	16d\	.
.	16e-\JJ	.
4DD/	16f\LL	.
.	16g\	.
.	16a-\	.
.	16b-\JJ	.
4EE-/	16g\LL	4r
.	16an\	.
.	16b-\	.
.	16cc\JJ	.
4FF/	8.b-\L	8r
.	.	8ff\
.	16a\Jk	.
=29	=29	=29
8BB-\L	4b-\	8.dd\L
8B-\J	.	.
.	.	32cc\LL
.	.	32b-\JJJ
4A\	8r	4ff\
.	8f\	.
4B-\	8.d\L	4r
.	32c\LL	.
.	32B-\JJJ	.
4D\	4f\	16r
.	.	16ff\LL
.	.	16bb-\
.	.	16aa-\JJ
=30	=30	=30
4E-\	16r	4gg\
.	16B-/LL	.
.	16G/	.
.	16A/JJ	.
4G\	4B-/	16r
.	.	16gg\LL
.	.	16dd\
.	.	16een\JJ
4F\	16r	4ff\
.	16c/LL	.
.	16A/	.
.	16B-/JJ	.
4AA/	4c\	16r
.	.	16cc\LL
.	.	16dd\
.	.	16ee-\JJ
=31	=31	=31
4BB-/	16r	4dd\
.	16B-/LL	.
.	16F/	.
.	16G/JJ	.
4FF/	8.A/L	16r
.	.	16cc\LL
.	.	16ff\
.	16c/Jk	16ee-\JJ
4GG/	16B-/LL	8dd\L
.	16G/	.
.	16D/	8b-\
.	16En/JJ	.
4DD/	16F/LL	8b-\
.	16F/	.
.	16B-/	8b-\J
.	16A-/JJ	.
=32	=32	=32
4EE-/	16G/LL	16b-\LL
.	16G/	16b-\
.	16c/	16ee-\
.	16B-/JJ	16ee-\JJ
4FF/	8B-\L	16ee-\LL
.	.	16dd\
.	16A\L	16cc\
.	16f\JJ	16dd\JJ
8BB-\L	8.d\L	8b-\
8B-\J	.	8r
.	32c\LL	.
.	32B-\JJJ	.
4A\	4f\	8r
.	.	8ff\
=33	=33	=33
4B-\	4r	8.dd\L
.	.	32cc\LL
.	.	32b-\JJJ
4D\	16r	4ff\
.	16f\LL	.
.	16b-\	.
.	16a-\JJ	.
4E-\	4g\	16r
.	.	16cc/LL
.	.	16g/
.	.	16a/JJ
4G\	16r	4b-\
.	16g\LL	.
.	16d\	.
.	16en\JJ	.
=34	=34	=34
4F\	4f\	16a/LL
.	.	16cc/
.	.	16a/
.	.	16b-/JJ
4AA/	16r	4cc\
.	16c\LL	.
.	16f\	.
.	16e-\JJ	.
4BB-/	4d\	16r
.	.	16b-/LL
.	.	16f/
.	.	16g/JJ
4FF/	16r	8.a\L
.	16c\LL	.
.	16f\	.
.	16e-\JJ	16cc\Jk
=35	=35	=35
4GG/	8d/L	16b-\LL
.	.	16gg\
.	8B-/	16dd\
.	.	16een\JJ
4DD/	8B-/	16ff\LL
.	.	16f\
.	8B-/J	16b-\
.	.	16a-\JJ
4EE-/	16B-\LL	16g/LL
.	16B-\	16g/
.	16e-\	16cc/
.	16e-\JJ	16b-/JJ
4FF/	16e-\LL	8b-\L
.	16d\	.
.	16c\	16an\L
.	16d\JJ	16ff\JJ
=36	=36	=36
8BB-\L	8B-/L	8.dd\L
8B-\J	8BB-/J	.
.	.	32cc\LL
.	.	32b-\JJJ
4A\	8r	4ff\
.	8f\	.
4B-\	8.d\L	4r
.	32c\LL	.
.	32B-\JJJ	.
4D\	[4f\	16r
.	.	16bb-\LL
.	.	16bb-\
.	.	16aa-\JJ
=37	=37	=37
4E-\	8f\L]	16gg\LL
.	.	16aa\
.	8e-\	16gg\
.	.	16aa\JJ
4G\	8e-\	16bb-\LL
.	.	16ccc\
.	8e-\J	16bb-\
.	.	16ccc\JJ
4F\	8e-\L	16aa\LL
.	.	16cc\
.	8d\	16dd\
.	.	16ee-\JJ
4AA/	8.d\	16ff\LL
.	.	16gg\
.	.	16ff\
.	16c\Jk	16ee-\JJ
=38	=38	=38
4BB-/	8c/L	16dd\LL
.	.	16ee-\
.	8B-/	16dd\
.	.	16ee-\JJ
4FF/	8B-/	16dd\LL
.	.	16ee-\
.	8A/J	16cc\
.	.	16dd\JJ
4GG/	8A/L	16b-\LL
.	.	16cc\
.	8G/	16b-\
.	.	16cc\JJ
4DD/	8G/	16b-\LL
.	.	16cc\
.	8F/J	16b-\
.	.	16dd\JJ
=39	=39	=39
4EE-/	8F/L	16g/LL
.	.	16b-/
.	16E-/L	16cc/
.	16D/JJ	16b-/JJ
4FF/	8C/L	8.b-/L
.	8f/J	.
.	.	16a/Jk
8BB-\L	8.d\L	8b-/L
8B-\J	.	8f/J
.	32c\LL	.
.	32B-\JJJ	.
4A\	4f\	8r
.	.	8ff\
=40	=40	=40
4B-\	4r	8.dd\L
.	.	32cc\LL
.	.	32b-\JJJ
4D\	16r	[4ff\
.	16b-\LL	.
.	16b-\	.
.	16a-\JJ	.
4E-\	16g\LL	8ff\L]
.	16an\	.
.	16g\	8ee-\
.	16a\JJ	.
4G\	16b-\LL	8ee-\
.	16cc\	.
.	16b-\	8ee-\J
.	16cc\JJ	.
=41	=41	=41
4F\	16a\LL	8ee-\L
.	16c\	.
.	16d\	8dd\
.	16e-\JJ	.
4AA/	16f\LL	8.dd\
.	16g\	.
.	16f\	.
.	16e-\JJ	16cc\Jk
4BB-/	16d\LL	8cc\L
.	16e-\	.
.	16d\	8b-\
.	16e-\JJ	.
4FF/	16d\LL	8b-\
.	16e-\	.
.	16c\	8a\J
.	16d\JJ	.
=42	=42	=42
4GG/	16B-/LL	8a/L
.	16c/	.
.	16B-/	8g/
.	16c/JJ	.
4DD/	16B-/LL	8.g/
.	16c/	.
.	16B-/	.
.	16d/JJ	16f/Jk
4EE-/	16G/LL	8f/L
.	16B-/	.
.	16c/	16e-/L
.	16B-/JJ	16d/JJ
4FF/	8.B-/L	8c/L
.	.	8f/J
.	16A/Jk	.
=43	=43	=43
8BB-\L	8B-/	8.d/L
8B-\J	8r	.
.	.	32c/LL
.	.	32B-/JJJ
4A\	8r	4f/
.	8f\	.
4B-\	8.d\L	4r
.	32c\LL	.
.	32B-\JJJ	.
4D\	4f\	16r
.	.	16ff\LL
.	.	16gg\
.	.	16aa-\JJ
=44	=44	=44
4E-\	1r	16gg\LL
.	.	16b-\
.	.	16g\
.	.	16a\JJ
4G\	.	16b-\LL
.	.	16cc\
.	.	16dd\
.	.	16een\JJ
4F\	.	16ff\LL
.	.	16cc\
.	.	16a\
.	.	16b-\JJ
4AA/	.	16cc\LL
.	.	16dd\
.	.	16ee-\
.	.	16ff\JJ
=45	=45	=45
4BB-/	1r	16dd/LL
.	.	16b-/
.	.	16f/
.	.	16g/JJ
4FF/	.	16a\LL
.	.	16b-\
.	.	16cc\
.	.	16dd\JJ
4GG/	.	16b-/LL
.	.	16g/
.	.	16d/
.	.	16en/JJ
4DD/	.	16f/LL
.	.	16g/
.	.	16a-/
.	.	16b-/JJ
=46	=46	=46
4EE-/	2r	8g\L
.	.	16gg\L
.	.	16ff\JJ
4FF/	.	16ee-\LL
.	.	16dd\
.	.	16cc\
.	.	16ff\JJ
8BB-\L	4r	8.dd\L
8B-\J	.	.
.	.	32cc\LL
.	.	32b-\JJJ
4A\	8r	4ff\
.	8f\	.
=47	=47	=47
4B-\	8.d\L	1r
.	32c\LL	.
.	32B-\JJJ	.
4D\	8.f/L	.
.	16F/Jk	.
4E-\	8.G/L	.
.	16A/Jk	.
4G\	8.B-/L	.
.	16c/Jk	.
=48	=48	=48
4F\	8.A/L	4r
.	16B-/Jk	.
4AA/	8.c\L	8r
.	.	16ff\LL
.	16f\Jk	16ff\JJ
4BB-/	8.d\L	4ff\
.	16d\Jk	.
4FF/	8.d/L	4r
.	16A/Jk	.
=49	=49	=49
4GG/	8.B-/L	1r
.	16B-/Jk	.
4DD/	8.B-/L	.
.	16B-/Jk	.
4EE-/	8.B-/L	.
.	16c/Jk	.
4FF/	8.A\L	.
.	16f\Jk	.
=50	=50	=50
8BB-\L	8.d\L	4r
8B-\J	.	.
.	32c\LL	.
.	32B-\JJJ	.
4A\	4f\	8r
.	.	8ff\
4B-\	4r	8.dd\L
.	.	32cc\LL
.	.	32b-\JJJ
4D\	16r	4ff\
.	16d/LL	.
.	16B-/	.
.	16A/JJ	.
=51	=51	=51
4E-\	16G/LL	8r
.	16B-/	.
.	16G/	8gg\
.	16A/JJ	.
4G\	16B-\LL	8r
.	16c\	.
.	16d\	8bb-\
.	16en\JJ	.
4F\	16f\LL	8aa\L
.	16c\	.
.	16A\	8ff\J
.	16B-\JJ	.
4AA/	16c\LL	8r
.	16d\	.
.	16e-\	8cc\
.	16f\JJ	.
=52	=52	=52
4BB-/	16d/LL	8r
.	16B-/	.
.	16F/	8dd\
.	16G/JJ	.
4FF/	16A/LL	8r
.	16B-/	.
.	16c/	8a/
.	16d/JJ	.
4GG/	16B-/LL	8r
.	16G/	.
.	16D/	8b-\
.	16En/JJ	.
4DD/	16F/LL	8r
.	16G/	.
.	16A-/	8b-\
.	16B-/JJ	.
=53	=53	=53
4EE-/	8G\L	8r
.	16g\L	8b-\
.	16f\JJ	.
4FF/	16e-\LL	8r
.	16d\	.
.	16c\	8a/
.	16f\JJ	.
8BB-\L	8.d\L	8b-/L
8B-\J	.	8B-/J
.	32c\LL	.
.	32B-\JJJ	.
4A\	4f\	8r
.	.	8ff\
=54	=54	=54
4B-\	2r	8.dd\L
.	.	32cc\LL
.	.	32b-\JJJ
4D\	.	16ff\LL
.	.	16bb-\
.	.	16aa-\
.	.	16bb-\JJ
4E-\	16r	8gg\
.	16B-/LL	.
.	16G/	8r
.	16A/JJ	.
4G\	4B-/	16r
.	.	16cc\LL
.	.	16dd\
.	.	16een\JJ
=55	=55	=55
4F\	16r	4ff\
.	16c/LL	.
.	16A/	.
.	16B-/JJ	.
4AA/	4c\	16r
.	.	16dd\LL
.	.	16ee-\
.	.	16ff\JJ
4BB-/	16r	4dd\
.	16B-/LL	.
.	16F/	.
.	16G/JJ	.
4FF/	4A/	16r
.	.	16b-\LL
.	.	16cc\
.	.	16dd\JJ
=56	=56	=56
4GG/	16r	4b-\
.	16G/LL	.
.	16D/	.
.	16En/JJ	.
4DD/	4F/	16r
.	.	16gg\LL
.	.	16aa-\
.	.	16bb-\JJ
4EE-/	16r	16gg\LL
.	16f\LL	16aa-\
.	16e-\	16gg\
.	16d\JJ	16ff\JJ
4FF/	16c/LL	16ee-\LL
.	16B-/	16dd\
.	16A/	16cc\
.	16c/JJ	16ff\JJ
=57	=57	=57
8BB-\L	8B-/	8.dd\L
8B-\J	8r	.
.	.	32cc\LL
.	.	32b-\JJJ
4A\	8r	4ff\
.	8f\	.
4B-\	8.d\L	4r
.	32c\LL	.
.	32B-\JJJ	.
4D\	4f\	8r
.	.	8bb-\
=58	=58	=58
4E-\	8r	4gg\
.	8g\	.
4G\	4b-\	8r
.	.	8dd\
4F\	8r	4ff\
.	8a\	.
4AA/	4cc\	8r
.	.	8ee-\
=59	=59	=59
4BB-/	8r	4dd\
.	16b-\LL	.
.	16f\JJ	.
4FF/	4a\	8r
.	.	8ff\
4GG/	8r	4b-\
.	16g\LL	.
.	16d\JJ	.
4DD/	4f\	8r
.	.	8dd\
=60	=60	=60
4EE-/	16e-\LL	8g/L
.	16f\	.
.	16d\	8b-/J
.	16e-\JJ	.
4FF/	8c\L	8.b-/L
.	8f\J	.
.	.	16a/Jk
8BB-\L	8.d\L	8b-\
8B-\J	.	8r
.	32c\LL	.
.	32B-\JJJ	.
4A\	4f\	8r
.	.	8ff\
=61	=61	=61
4B-\	4r	8.dd\L
.	.	32cc\LL
.	.	32b-\JJJ
4D\	16r	8.ff\L
.	16F/LK	.
.	8B-/J	.
.	.	16f\Jk
4E-\	16r	8g/
.	16G/LK	.
.	8c/J	16r
.	.	16a/
4G\	16r	8b-\
.	16B-\LK	.
.	8e-\J	16r
.	.	16g/
=62	=62	=62
4F\	16r	8a/
.	16d\LK	.
.	8c\J	16r
.	.	16b-\
4AA/	16r	8cc\
.	16d\LK	.
.	8e-\J	16r
.	.	16cc\
4BB-/	16r	8f/
.	16e-\LK	.
.	8d\J	16r
.	.	16g/
4FF/	16r	8a/
.	16d\LK	.
.	8c\J	16r
.	.	16aa\
=63	=63	=63
4GG/	16r	8dd\
.	16c/LK	.
.	8B-/J	16r
.	.	16een\
4DD/	16r	8ff\
.	16A/LK	.
.	8B-/J	16r
.	.	16aa-\
4EE-/	16r	8gg\
.	16c/LK	.
.	8B-/J	16r
.	.	16gg\
4FF/	16r	8cc\
.	16B-/LK	.
.	8A/J	16r
.	.	16ff\
=64	=64	=64
8BB-\L	16r	8dd\
.	16B-\LK	.
8B-\J	8f\J	16r
.	.	16dd\
4A\	16r	8cc\
.	16F/LK	.
.	8f/J	16r
.	.	16ee-\
4B-\	16r	8dd\
.	16g\LK	.
.	8f\J	16r
.	.	16ee-\
4D\	16r	8ff\
.	16f\LK	.
.	8b-\J	16r
.	.	16aa-\
=65	=65	=65
4E-\	16r	8gg\
.	16a-\LK	.
.	8g\J	16r
.	.	16ff\
4G\	16r	8ee-\
.	16an\LK	.
.	8b-\J	16r
.	.	16dd\
4F\	16r	8ff\
.	16a\LK	.
.	8cc\J	16r
.	.	16a/
4AA/	16r	8cc\
.	16c\LK	.
.	8e-\J	16r
.	.	16cc\
=66	=66	=66
4BB-/	16r	8f/
.	16d\LK	.
.	8B-\J	16r
.	.	16dd\
4FF/	16r	8a/
.	16c/LK	.
.	8F/J	16r
.	.	16cc\
*	*clefF4	*
4GG/	16r	8b-\
.	16D\LK	.
.	8G\J	16r
.	.	16b-\
4DD/	16r	8f/
.	16d\LK	.
.	8D\J	16r
.	.	16b-\
=67	=67	=67
4EE-/	16r	8g/
.	16E-\LK	.
.	8G\J	16r
.	.	16ee-\LK
4FF/	16r	8.dd\
.	16F/LK	.
.	8FF/J	.
.	.	16a\Jk
8BB-\L	4r	16b-\LL
.	.	16b-\
8B-\J	.	16dd\
.	.	16b-\JJ
4A\	16r	8ff\
.	16F\LL	.
.	16A\	8r
.	16F\JJ	.
=68	=68	=68
4B-\	8B-\	16r
.	.	16b-\LL
.	8r	16dd\
.	.	16b-\JJ
4D\	16r	8ff\
.	16D\LL	.
.	16F\	8r
.	16D\JJ	.
4E-\	8E-\	16r
.	.	16g/LL
.	8r	16b-/
.	.	16g/JJ
4G\	16r	8b-\
.	16G\LL	.
.	16B-\	8r
.	16G\JJ	.
=69	=69	=69
4F\	8A\	16r
.	.	16ff\LL
.	8r	16aa\
.	.	16ff\JJ
4AA/	16r	8ccc\
.	16AA/LL	.
.	16C/	8r
.	16AA/JJ	.
4BB-/	8BB-/	16r
.	.	16dd\LL
.	8r	16ff\
.	.	16dd\JJ
4FF/	16r	8aa\
.	16FF/LL	.
.	16AA/	8r
.	16FF/JJ	.
=70	=70	=70
4GG/	16GG\LL	16r
.	16G\	16b-\LL
.	16B-\	16dd\
.	16G\JJ	16b-\JJ
4DD/	16d\LL	8ff\
.	16D\	.
.	16F\	8r
.	16D\JJ	.
4EE-/	16G\LL	16r
.	16G\	16ee-\LL
.	16A\	16ff\
.	16B-\JJ	16gg\JJ
4FF/	16F/LL	8.cc\L
.	16FF/	.
.	16AA/	.
.	16FF/JJ	16ff\Jk
=71	=71	=71
8BB-\L	4BB-/	8.dd\L
8B-\J	.	.
.	.	32cc\LL
.	.	32b-\JJJ
4A\	4r	8.ff\L
.	.	16ff\Jk
4B-\	2r	8.dd\L
.	.	32cc\LL
.	.	32b-\JJJ
4D\	.	8.ff\L
.	.	16f\Jk
*	*clefC3	*
=72	=72	=72
4E-\	1r	16g/LL
.	.	16a/
.	.	16g/
.	.	16a/JJ
4G\	.	16b-\LL
.	.	16cc\
.	.	16b-\
.	.	16cc\JJ
4F\	.	16a/LL
.	.	16b-/
.	.	16a/
.	.	16b-/JJ
4AA/	.	16cc/LL
.	.	16f/
.	.	16e-/
.	.	16f/JJ
=73	=73	=73
4BB-/	1r	16d\LL
.	.	16dd\
.	.	16cc\
.	.	16dd\JJ
4FF/	.	16a\LL
.	.	16ff\
.	.	16ee-\
.	.	16ff\JJ
4GG/	.	16b-\LL
.	.	16bb-\
.	.	16aa\
.	.	16bb-\JJ
4DD/	.	16gg\LL
.	.	16ddd\
.	.	16ccc\
.	.	16ddd\JJ
=74	=74	=74
4EE-/	2r	16G/LL
.	.	16c/
.	.	16B-/
.	.	16c/JJ
4FF/	.	8.A/L
.	.	16ff/Jk
8BB-\L	4r	8.dd\L
8B-\J	.	.
.	.	32cc\LL
.	.	32b-\JJJ
4A\	8r	4ff\
.	8f\	.
=75	=75	=75
4B-\	8.d\L	4r
.	32c\LL	.
.	32B-\JJJ	.
4D\	8f\	8r
*	*clefF4	*
.	16B-\LL	16dd\LL
.	16D\JJ	16ff\JJ
4E-\	16E-\LL	16cc\LL
.	16G\	16ee-\
.	16E-\	16cc\
.	16G\JJ	16ee-\JJ
4G\	8GG/L	16dd\LL
.	.	16b-\
.	8C/J	16een\
.	.	16b-\JJ
=76	=76	=76
4F\	4FF/	16a\LL
.	.	16ff\
.	.	16a\
.	.	16ff\JJ
4AA/	16AA/LL	16cc\LL
.	16C/	16ff\
.	16AA/	16ee-\
.	16C/JJ	16ff\JJ
4BB-/	16BB-/LL	16dd\LL
.	16D/	16ff\
.	16BB-/	16dd\
.	16D/JJ	16ff\JJ
4FF/	16FF/LL	16a\LL
.	16D/	16ff\
.	16FF/	16a\
.	16D/JJ	16ff\JJ
=77	=77	=77
4GG/	16GG/LL	16b-\LL
.	16D/	16bb-\
.	16GG/	16b-\
.	16D/JJ	16bb-\JJ
4DD/	16DD/LL	16b-\LL
.	16D/	16bb-\
.	16DD/	16b-\
.	16D/JJ	16bb-\JJ
4EE-/	16EE-\LL	16b-\LL
.	16G\	16bb-\
.	16F\	16b-\
.	16G\JJ	16bb-\JJ
4FF/	8.F/L	16b-\LL
.	.	16bb-\
.	.	16b-\
.	16FF/Jk	16aa\JJ
=78	=78	=78
8BB-\L	8BB-/	8bb-\L
*	*clefC3	*
8B-\J	16B-/LL	16dd\L
.	16B-/JJ	16dd\JJ
4A\	8A/L	8cc\L
.	16c/L	16ff\L
.	16c/JJ	16ff\JJ
4B-\	8B-\L	8dd\L
.	16d\L	16ff\L
.	16d\JJ	16ff\JJ
4D\	8f/L	8bb-\L
.	16D/L	16f\L
.	16D/JJ	16f\JJ
=79	=79	=79
4E-\	8E-/L	8g\L
.	16G/L	16ee-\L
.	16G/JJ	16ee-\JJ
4G\	8B-\L	8dd\L
.	16d\L	16bb-\L
.	16d\JJ	16bb-\JJ
4F\	8f/L	8aa\L
.	16A/L	16cc\L
.	16A/JJ	16cc\JJ
4AA/	8c\	8ff/L
*	*clefF4	*
.	16AA/LL	16e-/L
.	16AA/JJ	16e-/JJ
=80	=80	=80
4BB-/	8BB-/L	8d/L
.	16D/L	16b-/L
.	16D/JJ	16b-/JJ
4FF/	8E-/L	8a\L
.	16FF/L	16dd\L
.	16FF/JJ	16dd\JJ
4GG/	8GG/L	8b-\L
.	16BB-/L	16dd\L
.	16BB-/JJ	16dd\JJ
4DD/	8D/L	8ff/L
.	16DD/L	16f/L
.	16DD/JJ	16f/JJ
=81	=81	=81
4EE-/	8EE-/L	8g\L
.	16EE-/L	16gg\L
.	16EE-/JJ	16gg\JJ
4FF/	8FF/L	8ff\L
.	16FF/L	16ee-\L
.	16FF/JJ	16ee-\JJ
8BB-\L	4BB-/	8dd\L
8B-\J	.	16dd\L
.	.	16dd\JJ
4A\	4r	16ff\LL
.	.	16ff\
.	.	16cc\
.	.	16cc\JJ
=82	=82	=82
4B-\	8r	4dd\
.	16B-\LL	.
.	16B-\JJ	.
4D\	16d\LL	4r
.	16d\	.
.	16D\	.
.	16D\JJ	.
4E-\	4E-\	8r
.	.	16gg\LL
.	.	16gg\JJ
4G\	4r	16bb-\LL
.	.	16bb-\
.	.	16dd\
.	.	16dd\JJ
=83	=83	=83
4F\	8r	8ff\L
.	16F\LL	16aa\L
.	16F\JJ	16aa\JJ
4AA/	16A\LL	16ccc\LL
.	16A\	16ccc\
.	16AA\	16cc\
.	16AA\JJ	16cc\JJ
4BB-/	8BB-/L	8dd\L
.	16D/L	16ff\L
.	16D/JJ	16ff\JJ
4FF/	16F/LL	16aa\LL
.	16F/	16aa\
.	16FF/	16a\
.	16FF/JJ	16a\JJ
=84	=84	=84
4GG/	8GG/L	8b-\L
.	16BB-/L	16dd\L
.	16BB-/JJ	16dd\JJ
4DD/	16D/LL	16ff\LL
.	16D/	16ff\
.	16DD/	16f\
.	16DD/JJ	16f\JJ
4EE-/	8EE-\L	16g\LL
.	.	16gg\
.	16G\L	16ee-\
.	16G\JJ	16b-\JJ
4FF/	16F\LL	8.b-/L
.	16E-\J	.
.	8F\J	.
.	.	16a/Jk
=85	=85	=85
8BB-\L	16BB-/LL	4b-\
.	16C/	.
8B-\J	16D/	.
.	16En/JJ	.
4A\	16F\LL	4r
.	16G\	.
.	16A\	.
.	16F\JJ	.
*	*clefC3	*
4B-\	16d\LL	2r
.	16B-\	.
.	16d\	.
.	16e-\JJ	.
4D\	16f\LL	.
.	16g\	.
.	16a-\	.
.	16f\JJ	.
=86	=86	=86
4E-\	16g\LL	8r
.	16e-\	.
.	16d\	16g/LL
.	16c\JJ	16a/JJ
4G\	16B-/LL	(16b-\LL
.	16A/	16cc\
.	16B-/	16dd\
.	16G/JJ	16een\JJ)
4F\	16A/LL	(16ff\LL
*	*clefF4	*
.	16D/	16gg\
.	16C/	16aa\
.	16BB-/JJ	16bb-\JJ)
4AA/	4AA/	(16ccc\LL
.	.	16ddd\
.	.	16eee-\
.	.	16ddd\JJ)
=87	=87	=87
4BB-/	16r	(16d/LL
.	16BB-/LL	16en/
.	16AA/	16f/
.	16GG/JJ	16g/JJ)
4FF/	4FF/	16a/LL
.	.	16b-/
.	.	16cc/
.	.	16a/JJ
4GG/	16r	(16b-\LL
.	16GG/LL	16cc\
.	16FF/	16dd\
.	16EE-/JJ	16ee-\JJ)
4DD/	8DD/L	(16ff\LL
.	.	16gg\
.	16F/L	16aa-\
.	16E-/JJ	16gg\JJ)
=88	=88	=88
4EE-/	16E-\LL	4gg\
.	16G\	.
.	16C\	.
.	16E-\JJ	.
4FF/	4FF/	16r
.	.	16gg\LL
.	.	16ff\
.	.	16ee-\JJ
8BB-\L	4BB-/	16dd\LL
.	.	16dd\
8B-\J	.	16dd\
.	.	16ff\JJ
4A\	4r	16ff\LL
.	.	16ff\
.	.	16ff\
.	.	16cc\JJ
*	*clefC3	*
=89	=89	=89
4B-\	1r	16dd\LL
.	.	16dd\
.	.	16dd\
.	.	16ff\JJ
4D\	.	16bb-\LL
.	.	16bb-\
.	.	16bb-\
.	.	16ff\JJ
4E-\	.	16gg\LL
.	.	16gg\
.	.	16gg\
.	.	16cc\JJ
4G\	.	16ee-\LL
.	.	16ee-\
.	.	16ee-\
.	.	16b-\JJ
=90	=90	=90
4F\	1r	16dd\LL
.	.	16dd\
.	.	16dd\
.	.	16a\JJ
4AA/	.	16cc/LL
.	.	16cc/
.	.	16cc/
.	.	16c/JJ
4BB-/	.	16d/LL
.	.	16d/
.	.	16d/
.	.	16dd/JJ
4FF/	.	16dd\LL
.	.	16dd\
.	.	16dd\
.	.	16a\JJ
=91	=91	=91
4GG/	1r	16b-\LL
.	.	16b-\
.	.	16b-\
.	.	16bb-\JJ
4DD/	.	16bb-\LL
.	.	16bb-\
.	.	16bb-\
.	.	16ff\JJ
4EE-/	.	16gg\LL
.	.	16gg\
.	.	16gg\
.	.	16bb-\JJ
4FF/	.	16dd\LL
.	.	16ee-\
.	.	16cc\
.	.	16dd\JJ
=92	=92	=92
8BB-\L	1r	12b-\L
.	.	12dd\
8B-\J	.	.
.	.	12ee-\J
4A\	.	12ff\L
.	.	12cc\
.	.	12ee-\J
4B-\	.	12dd\L
.	.	12gg\
.	.	12aa\J
4D\	.	12bb-\L
.	.	12ff\
.	.	12aa-\J
=93	=93	=93
4E-\	1r	12gg\L
.	.	12g\
.	.	12a\J
4G\	.	12b-\L
.	.	12cc\
.	.	12b-\J
4F\	.	12a\L
.	.	12aa\
.	.	12bb-\J
4AA/	.	12ccc\L
.	.	12ff\
.	.	12ee-\J
=94	=94	=94
4BB-/	1r	12dd\L
.	.	12ff\
.	.	12bb-\J
4FF/	.	12aa\L
.	.	12dd\
.	.	12cc\J
4GG/	.	12b-\L
.	.	12dd\
.	.	12gg\J
4DD/	.	12ff\L
.	.	12b-\
.	.	12a-\J
=95	=95	=95
4EE-/	2r	12g\L
.	.	12b-\
.	.	12ee-\J
4FF/	.	12dd\L
.	.	12cc\
.	.	12ff\J
8BB-\L	4r	12dd\L
.	.	12b-\
8B-\J	.	.
.	.	12dd\J
4A\	12r	4ff\
.	12r	.
.	12f\	.
=96	=96	=96
4B-\	12d\L	1r
.	12B-\	.
.	12d\J	.
4D\	12f/L	.
.	12F/	.
.	12A/J	.
4E-\	12G\L	.
.	12g\	.
.	12a\J	.
4G\	12b-\L	.
.	12d\	.
.	12e-\J	.
=97	=97	=97
4F\	12f\L	1r
.	12A\	.
.	12B-\J	.
4AA/	12c\L	.
.	12f\	.
.	12e-\J	.
4BB-/	12d\L	.
.	12B-\	.
.	12d\J	.
4FF/	12f\L	.
.	12c\	.
.	12e-\J	.
=98	=98	=98
4GG/	12d\L	1r
.	12B-\	.
.	12d\J	.
4DD/	12f\L	.
.	12e-\	.
.	12d\J	.
4EE-/	12c\L	.
.	12d\	.
.	12e-\J	.
4FF/	12d\L	.
.	12c\	.
.	12f\J	.
=99	=99	=99
8BB-\L	12d\L	4r
.	12B-\	.
8B-\J	.	.
.	12d\J	.
4A\	6f\	12r
.	.	12r
.	12A\	12ff\
4B-\	4B-/	12dd\L
.	.	12b-\
.	.	12dd\J
*	*clefF4	*
4D\	12r	12ff\L
.	12r	12f\
.	12D\	12a-\J
=100	=100	=100
4E-\	4E-\	12g\L
.	.	12gg\
.	.	12aa\J
4G\	12r	12bb-\L
.	12r	12dd\
.	12G\	12een\J
4F\	4F\	12ff\L
.	.	12a\
.	.	12b-\J
4AA/	12r	12cc\L
.	12r	12ff\
.	12AA/	12ee-\J
=101	=101	=101
4BB-/	4BB-/	12dd\L
.	.	12b-\
.	.	12dd\J
4FF/	12r	12ff\L
.	12r	12cc\
.	12FF/	12ee-\J
4GG/	4GG/	12dd\L
.	.	12b-\
.	.	12dd\J
4DD/	12r	12ff\L
.	12r	12gg\
.	12DD/	12aa-\J
=102	=102	=102
4EE-/	4EE-/	12cc\L
.	.	12dd\
.	.	12ee-\J
4FF/	12r	12dd\L
.	12r	12cc\
.	12FF/	12ff\J
8BB-\L	4BB-/	12dd\L
.	.	12b-\
8B-\J	.	.
.	.	12dd\J
*	*clefC3	*
4A\	12r	4ff\
.	12r	.
.	12f\	.
=103	=103	=103
4B-\	12d\L	4r
.	12B-\	.
.	12d\J	.
4D\	6f\	12r
.	.	12bb-\L
.	12D/	12aa-\J
4E-\	12E-/L	4gg\
.	12G/	.
.	12A/J	.
4G\	12B-/L	12r
.	12A/	12dd\L
.	12G/J	12een\J
*	*clefF4	*
=104	=104	=104
4F\	12A\L	4ff\
.	12F\	.
.	12A\J	.
4AA/	12c\L	12r
.	12AA\	12cc\L
.	12C\J	12ee-\J
4BB-/	12BB-/L	4dd\
.	12D/	.
.	12En/J	.
4FF/	12F/L	12r
.	12FF/	12a\L
.	12AA/J	12cc\J
=105	=105	=105
4GG/	12GG/L	12b-\L
.	12BB-/	12dd\
.	12GG/J	12ee-\J
4DD/	12D\L	12ff\L
.	12E-\	12gg\
.	12F\J	12aa-\J
4EE-/	12E-\L	12gg\L
.	12F\	12cc\
.	12G\J	12ee-\J
4FF/	12F\L	8dd\L
.	12E-\	.
.	.	24cc\k
.	12F\J	12b-\J
=106	=106	=106
8BB-\L	4BB-/	24b-\LL
.	.	24cc\
.	.	24dd\
8B-\J	.	24ee-\
.	.	24ff\
.	.	24gg\JJ
4A\	4r	24ff\LL
.	.	24gg\
.	.	24aa\
.	.	24bb-\
.	.	24ccc\
.	.	24cc\JJ
4B-\	2r	24dd\LL
.	.	24ff\
.	.	24gg\
.	.	24aa\
.	.	24bb-\
.	.	24dd\JJ
4D\	.	24ff\LL
.	.	24b-\
.	.	24cc\
.	.	24b-\
.	.	24a-\
.	.	24b-\JJ
*	*clefC3	*
=107	=107	=107
4E-\	1r	24g\LL
.	.	24ee-\
.	.	24dd\
.	.	24ee-\
.	.	24dd\
.	.	24cc\JJ
4G\	.	24b-\LL
.	.	24dd\
.	.	24ee-\
.	.	24dd\
.	.	24cc\
.	.	24b-\JJ
4F\	.	24a/LL
.	.	24cc/
.	.	24a/
.	.	24f/
.	.	24cc/
.	.	24a/JJ
4AA/	.	24ff/LL
.	.	24cc/
.	.	24a/
.	.	24cc/
.	.	24f/
.	.	24e-/JJ
=108	=108	=108
4BB-/	1r	24d/LL
.	.	24f/
.	.	24g/
.	.	24a/
.	.	24b-/
.	.	24dd/JJ
4FF/	.	24a\LL
.	.	24cc\
.	.	24dd\
.	.	24een\
.	.	24ff\
.	.	24a\JJ
4GG/	.	24b-\LL
.	.	24dd\
.	.	24ee-\
.	.	24ff\
.	.	24gg\
.	.	24b-\JJ
4DD/	.	24ff\LL
.	.	24a\
.	.	24b-\
.	.	24cc\
.	.	24dd\
.	.	24f\JJ
=109	=109	=109
4EE-/	4r	12g\L
.	.	24ee-\L
.	.	24dd\
.	.	24cc\
.	.	24b-\JJ
4FF/	12r	24a/LL
.	.	24g/
.	12r	24f/
.	.	24e-/
.	12f\	24d/
.	.	24c/JJ
8BB-\L	12d\L	4B-/
.	12B-\	.
8B-\J	.	.
.	12d\J	.
4A\	4f\	12r
.	.	12r
.	.	12ff\
=110	=110	=110
4B-\	4r	12dd\L
.	.	12b-\
.	.	12dd\J
4D\	12r	24ff\LL
.	.	24gg\
.	12r	24ff\
.	.	24ee-\
.	12B-/	24dd\
.	.	24cc\JJ
4E-\	12G/L	4b-\
.	12E-/	.
.	12G/J	.
4G\	24B-/LL	12r
.	24A/	.
.	24B-/	12r
.	24c/	.
.	24d/	12b-\
.	24en/JJ	.
=111	=111	=111
4F\	4f\	12a/L
.	.	12f/
.	.	12a/J
*	*clefF4	*
4AA/	12r	24cc\LL
.	.	24dd\
.	12r	24cc\
.	.	24b-\
.	12F\	24a\
.	.	24g\JJ
4BB-/	12D/L	4f/
.	12C/	.
.	12D/J	.
4FF/	24F\LL	12r
.	24G\	.
.	24F\	12r
.	24E-\	.
.	24D\	12ff\
.	24C\JJ	.
=112	=112	=112
4GG/	12BB-/L	12dd\L
.	12GG/	12b-\
.	12BB-/J	12dd\J
4DD/	24D/LL	24ff\LL
.	24E-/	24gg\
.	24D/	24ff\
.	24C/	24ee-\
.	24BB-/	24dd\
.	24AA/JJ	24cc\JJ
4EE-/	8GG/L	12b-\L
.	.	24bb-\L
.	24FF/k	24bb-\J
.	12EE-/J	12bb-\J
4FF/	12FF\L	8b-\L
.	24F\L	.
.	24E-\J	24cc\k
.	12F\J	12a\J
=113	=113	=113
4BB-/	4BB-/	4b-\
4r	4r	4r
2r	2r	2r
==	==	==
*-	*-	*-
!!!ENC: Craig Stuart Sapp
!!!END: 2004/12/16/
